src/assets/images/ticket.svg

<svg width="458" height="486" viewBox="0 0 458 486" fill="none" xmlns="http://www.w3.org/2000/svg">
<g filter="url(#filter0_d_1053_13624)">
<path d="M430.018 371.968C430.018 364.933 440.534 359.148 454 358.467V0H435.157V2.61649C435.157 6.63035 428.763 9.88613 420.88 9.88613C412.997 9.88613 406.602 6.63318 406.602 2.61649V0H396.781V2.61649C396.781 6.63035 390.387 9.88613 382.504 9.88613C374.621 9.88613 368.227 6.63318 368.227 2.61649V0H358.405V2.61649C358.405 6.63035 352.011 9.88613 344.128 9.88613C336.245 9.88613 329.851 6.63318 329.851 2.61649V0H320.029V2.61649C320.029 6.63035 313.635 9.88613 305.752 9.88613C297.869 9.88613 291.475 6.63318 291.475 2.61649V0H281.653V2.61649C281.653 6.63035 275.259 9.88613 267.376 9.88613C259.493 9.88613 253.099 6.63318 253.099 2.61649V0H243.277V2.61649C243.277 6.63035 236.883 9.88613 229 9.88613C221.117 9.88613 214.723 6.63318 214.723 2.61649V0H204.901V2.61649C204.901 6.63035 198.507 9.88613 190.624 9.88613C182.741 9.88613 176.347 6.63318 176.347 2.61649V0H166.525V2.61649C166.525 6.63035 160.131 9.88613 152.248 9.88613C144.365 9.88613 137.971 6.63318 137.971 2.61649V0H128.149V2.61649C128.149 6.63035 121.755 9.88613 113.872 9.88613C105.989 9.88613 99.5953 6.63318 99.5953 2.61649V0H89.7736V2.61649C89.7736 6.63035 83.3794 9.88613 75.4965 9.88613C67.6135 9.88613 61.2194 6.63318 61.2194 2.61649V0H51.3977V2.61649C51.3977 6.63035 45.0035 9.88613 37.1205 9.88613C29.2376 9.88613 22.8435 6.63318 22.8435 2.61649V0H4V358.47C17.466 359.151 27.9822 364.933 27.9822 371.971C27.9822 379.006 17.466 384.79 4 385.472V478H22.8435V475.383C22.8435 471.37 29.2376 468.114 37.1205 468.114C45.0035 468.114 51.3977 471.367 51.3977 475.383V478H61.2194V475.383C61.2194 471.37 67.6135 468.114 75.4965 468.114C83.3794 468.114 89.7736 471.367 89.7736 475.383V478H99.5953V475.383C99.5953 471.37 105.989 468.114 113.872 468.114C121.755 468.114 128.149 471.367 128.149 475.383V478H137.971V475.383C137.971 471.37 144.365 468.114 152.248 468.114C160.131 468.114 166.525 471.367 166.525 475.383V478H176.347V475.383C176.347 471.37 182.741 468.114 190.624 468.114C198.507 468.114 204.901 471.367 204.901 475.383V478H214.723V475.383C214.723 471.37 221.117 468.114 229 468.114C236.883 468.114 243.277 471.367 243.277 475.383V478H253.099V475.383C253.099 471.37 259.493 468.114 267.376 468.114C275.259 468.114 281.653 471.367 281.653 475.383V478H291.475V475.383C291.475 471.37 297.869 468.114 305.752 468.114C313.635 468.114 320.029 471.367 320.029 475.383V478H329.851V475.383C329.851 471.37 336.245 468.114 344.128 468.114C352.011 468.114 358.405 471.367 358.405 475.383V478H368.227V475.383C368.227 471.37 374.621 468.114 382.504 468.114C390.387 468.114 396.781 471.367 396.781 475.383V478H406.602V475.383C406.602 471.37 412.997 468.114 420.88 468.114C428.763 468.114 435.157 471.367 435.157 475.383V478H454V385.472C440.534 384.787 430.018 379.006 430.018 371.968Z" fill="white"/>
<path d="M291.525 371.484H273.664V373.229H291.525V371.484Z" fill="#4A4A4A"/>
<path d="M327.234 371.484H309.379V373.229H327.234V371.484Z" fill="#4A4A4A"/>
<path d="M398.669 371.484H380.809V373.229H398.669V371.484Z" fill="#4A4A4A"/>
<path d="M362.949 371.484H345.094V373.229H362.949V371.484Z" fill="#4A4A4A"/>
<path d="M255.81 371.484H237.955V373.229H255.81V371.484Z" fill="#4A4A4A"/>
<path d="M430.018 371.968C430.018 371.801 430.096 371.648 430.107 371.484H416.524V373.229H430.251C430.179 372.808 430.018 372.401 430.018 371.968Z" fill="#4A4A4A"/>
<path d="M77.2354 371.484H59.3752V373.229H77.2354V371.484Z" fill="#4A4A4A"/>
<path d="M220.095 371.484H202.24V373.229H220.095V371.484Z" fill="#4A4A4A"/>
<path d="M28.0266 371.968C28.0266 372.398 27.871 372.808 27.7932 373.229H41.5259V371.484H27.9377C27.9488 371.648 28.0266 371.804 28.0266 371.968Z" fill="#4A4A4A"/>
<path d="M112.945 371.484H95.09V373.229H112.945V371.484Z" fill="#4A4A4A"/>
<path d="M148.659 371.484H130.805V373.229H148.659V371.484Z" fill="#4A4A4A"/>
<path d="M184.385 371.484H166.525V373.229H184.385V371.484Z" fill="#4A4A4A"/>
<path d="M68.7746 398.192H66.8524V447.62H68.7746V398.192Z" fill="#4A4A4A"/>
<path d="M76.9464 398.192H74.0632V447.62H76.9464V398.192Z" fill="#4A4A4A"/>
<path d="M84.1516 398.192H82.2295V447.62H84.1516V398.192Z" fill="#4A4A4A"/>
<path d="M94.079 398.192H92.1569V447.62H94.079V398.192Z" fill="#4A4A4A"/>
<path d="M106.573 398.192H100.806V447.62H106.573V398.192Z" fill="#4A4A4A"/>
<path d="M113.783 398.192H110.9V447.62H113.783V398.192Z" fill="#4A4A4A"/>
<path d="M124.033 398.192H121.15V447.62H124.033V398.192Z" fill="#4A4A4A"/>
<path d="M140.21 398.192H134.444V447.62H140.21V398.192Z" fill="#4A4A4A"/>
<path d="M154.304 398.192H148.537V447.62H154.304V398.192Z" fill="#4A4A4A"/>
<path d="M161.67 398.192H159.748V447.62H161.67V398.192Z" fill="#4A4A4A"/>
<path d="M169.681 398.192H167.758V447.62H169.681V398.192Z" fill="#4A4A4A"/>
<path d="M183.291 398.192H180.408V447.62H183.291V398.192Z" fill="#4A4A4A"/>
<path d="M194.185 398.192H191.302V447.62H194.185V398.192Z" fill="#4A4A4A"/>
<path d="M206.518 398.192H200.751V447.62H206.518V398.192Z" fill="#4A4A4A"/>
<path d="M213.084 398.192H210.201V447.62H213.084V398.192Z" fill="#4A4A4A"/>
<path d="M223.978 398.192H221.095V447.62H223.978V398.192Z" fill="#4A4A4A"/>
<path d="M233.744 398.192H231.822V447.62H233.744V398.192Z" fill="#4A4A4A"/>
<path d="M245.599 398.192H243.677V447.62H245.599V398.192Z" fill="#4A4A4A"/>
<path d="M256.649 398.192H253.766V447.62H256.649V398.192Z" fill="#4A4A4A"/>
<path d="M263.054 398.192H260.171V447.62H263.054V398.192Z" fill="#4A4A4A"/>
<path d="M271.226 398.192H269.304V447.62H271.226V398.192Z" fill="#4A4A4A"/>
<path d="M278.275 398.192H276.353V447.62H278.275V398.192Z" fill="#4A4A4A"/>
<path d="M292.364 398.192H286.597V447.62H292.364V398.192Z" fill="#4A4A4A"/>
<path d="M302.135 398.192H299.252V447.62H302.135V398.192Z" fill="#4A4A4A"/>
<path d="M325.04 398.192H323.117V447.62H325.04V398.192Z" fill="#4A4A4A"/>
<path d="M337.211 398.192H331.445V447.62H337.211V398.192Z" fill="#4A4A4A"/>
<path d="M344.739 398.192H341.856V447.62H344.739V398.192Z" fill="#4A4A4A"/>
<path d="M360.438 398.192H357.555V447.62H360.438V398.192Z" fill="#4A4A4A"/>
<path d="M371.165 398.192H369.243V447.62H371.165V398.192Z" fill="#4A4A4A"/>
<path d="M383.981 398.192H378.215V447.62H383.981V398.192Z" fill="#4A4A4A"/>
<path d="M391.192 398.192H388.309V447.62H391.192V398.192Z" fill="#4A4A4A"/>
</g>
<defs>
<filter id="filter0_d_1053_13624" x="0" y="0" width="458" height="486" filterUnits="userSpaceOnUse" color-interpolation-filters="sRGB">
<feFlood flood-opacity="0" result="BackgroundImageFix"/>
<feColorMatrix in="SourceAlpha" type="matrix" values="0 0 0 0 0 0 0 0 0 0 0 0 0 0 0 0 0 0 127 0" result="hardAlpha"/>
<feOffset dy="4"/>
<feGaussianBlur stdDeviation="2"/>
<feComposite in2="hardAlpha" operator="out"/>
<feColorMatrix type="matrix" values="0 0 0 0 0 0 0 0 0 0 0 0 0 0 0 0 0 0 0.25 0"/>
<feBlend mode="normal" in2="BackgroundImageFix" result="effect1_dropShadow_1053_13624"/>
<feBlend mode="normal" in="SourceGraphic" in2="effect1_dropShadow_1053_13624" result="shape"/>
</filter>
</defs>
</svg>

<svg xmlns="http://www.w3.org/2000/svg" width="458" height="486" fill="none"><g filter="url(#a)"><path fill="#fff" d="M430.018 371.968c0-7.035 10.516-12.82 23.982-13.501V0h-18.844v2.616c0 4.014-6.393 7.27-14.276 7.27s-14.278-3.253-14.278-7.27V0h-9.821v2.616c0 4.014-6.394 7.27-14.277 7.27s-14.277-3.253-14.277-7.27V0h-9.822v2.616c0 4.014-6.394 7.27-14.277 7.27s-14.277-3.253-14.277-7.27V0h-9.822v2.616c0 4.014-6.394 7.27-14.277 7.27s-14.277-3.253-14.277-7.27V0h-9.822v2.616c0 4.014-6.394 7.27-14.277 7.27s-14.277-3.253-14.277-7.27V0h-9.822v2.616c0 4.014-6.394 7.27-14.277 7.27s-14.277-3.253-14.277-7.27V0h-9.822v2.616c0 4.014-6.394 7.27-14.277 7.27s-14.277-3.253-14.277-7.27V0h-9.822v2.616c0 4.014-6.394 7.27-14.277 7.27s-14.277-3.253-14.277-7.27V0h-9.822v2.616c0 4.014-6.394 7.27-14.277 7.27s-14.277-3.253-14.277-7.27V0h-9.821v2.616c0 4.014-6.395 7.27-14.278 7.27-7.882 0-14.277-3.253-14.277-7.27V0h-9.821v2.616c0 4.014-6.395 7.27-14.278 7.27-7.882 0-14.276-3.253-14.276-7.27V0H4v358.47c13.466.681 23.982 6.463 23.982 13.501 0 7.035-10.516 12.819-23.982 13.501V478h18.844v-2.617c0-4.013 6.394-7.269 14.276-7.269 7.884 0 14.278 3.253 14.278 7.269V478h9.821v-2.617c0-4.013 6.395-7.269 14.277-7.269 7.883 0 14.278 3.253 14.278 7.269V478h9.821v-2.617c0-4.013 6.394-7.269 14.277-7.269s14.277 3.253 14.277 7.269V478h9.822v-2.617c0-4.013 6.394-7.269 14.277-7.269s14.277 3.253 14.277 7.269V478h9.822v-2.617c0-4.013 6.394-7.269 14.277-7.269s14.277 3.253 14.277 7.269V478h9.822v-2.617c0-4.013 6.394-7.269 14.277-7.269s14.277 3.253 14.277 7.269V478h9.822v-2.617c0-4.013 6.394-7.269 14.277-7.269s14.277 3.253 14.277 7.269V478h9.822v-2.617c0-4.013 6.394-7.269 14.277-7.269s14.277 3.253 14.277 7.269V478h9.822v-2.617c0-4.013 6.394-7.269 14.277-7.269s14.277 3.253 14.277 7.269V478h9.822v-2.617c0-4.013 6.394-7.269 14.277-7.269s14.277 3.253 14.277 7.269V478h9.821v-2.617c0-4.013 6.395-7.269 14.278-7.269s14.276 3.253 14.276 7.269V478H454v-92.528c-13.466-.685-23.982-6.466-23.982-13.504"/><path fill="#4A4A4A" d="M291.525 371.484h-17.861v1.745h17.861zM327.234 371.484h-17.855v1.745h17.855zM398.669 371.484h-17.86v1.745h17.86zM362.949 371.484h-17.855v1.745h17.855zM255.81 371.484h-17.855v1.745h17.855zM430.018 371.968c0-.167.078-.32.089-.484h-13.583v1.745h13.727c-.072-.421-.233-.828-.233-1.261M77.235 371.484h-17.86v1.745h17.86zM220.095 371.484H202.24v1.745h17.855zM28.027 371.968c0 .43-.156.84-.234 1.261h13.733v-1.745H27.938c.01.164.089.32.089.484M112.945 371.484H95.09v1.745h17.855zM148.659 371.484h-17.854v1.745h17.854zM184.385 371.484h-17.86v1.745h17.86zM68.775 398.192h-1.923v49.428h1.923zM76.946 398.192h-2.883v49.428h2.883zM84.152 398.192H82.23v49.428h1.922zM94.079 398.192h-1.922v49.428h1.922zM106.573 398.192h-5.767v49.428h5.767zM113.783 398.192H110.9v49.428h2.883zM124.033 398.192h-2.883v49.428h2.883zM140.21 398.192h-5.766v49.428h5.766zM154.304 398.192h-5.767v49.428h5.767zM161.67 398.192h-1.922v49.428h1.922zM169.681 398.192h-1.923v49.428h1.923zM183.291 398.192h-2.883v49.428h2.883zM194.185 398.192h-2.883v49.428h2.883zM206.518 398.192h-5.767v49.428h5.767zM213.084 398.192h-2.883v49.428h2.883zM223.978 398.192h-2.883v49.428h2.883zM233.744 398.192h-1.922v49.428h1.922zM245.599 398.192h-1.922v49.428h1.922zM256.649 398.192h-2.883v49.428h2.883zM263.054 398.192h-2.883v49.428h2.883zM271.226 398.192h-1.922v49.428h1.922zM278.275 398.192h-1.922v49.428h1.922zM292.364 398.192h-5.767v49.428h5.767zM302.135 398.192h-2.883v49.428h2.883zM325.04 398.192h-1.923v49.428h1.923zM337.211 398.192h-5.766v49.428h5.766zM344.739 398.192h-2.883v49.428h2.883zM360.438 398.192h-2.883v49.428h2.883zM371.165 398.192h-1.922v49.428h1.922zM383.981 398.192h-5.766v49.428h5.766zM391.192 398.192h-2.883v49.428h2.883z"/></g><defs><filter id="a" width="458" height="486" x="0" y="0" color-interpolation-filters="sRGB" filterUnits="userSpaceOnUse"><feFlood flood-opacity="0" result="BackgroundImageFix"/><feColorMatrix in="SourceAlpha" result="hardAlpha" values="0 0 0 0 0 0 0 0 0 0 0 0 0 0 0 0 0 0 127 0"/><feOffset dy="4"/><feGaussianBlur stdDeviation="2"/><feComposite in2="hardAlpha" operator="out"/><feColorMatrix values="0 0 0 0 0 0 0 0 0 0 0 0 0 0 0 0 0 0 0.25 0"/><feBlend in2="BackgroundImageFix" result="effect1_dropShadow_1053_13624"/><feBlend in="SourceGraphic" in2="effect1_dropShadow_1053_13624" result="shape"/></filter></defs></svg>
